!!!!SEGMENT: pl-kk--kk-i-274--005_anonim--missa-rorate-caeli-desuper-alleluia-ave-maria.krn
!!!cenid: 17xx:2081
!!!COM: Anonim
!!!COM-rismid: pe30004985
!!!CDT:
!!!CNT:
!!!OTL: Missa Rorate caeli desuper – Alleluia Ave Maria
!!!PDT:
!!!AGN: Sacred; Mass
!!!SMS-siglum: PL-Kk
!!!SMS-shelfmark: Kk.I.274
!!!SMS-shelfwork: 001-005 M
!!!SMS-variant:
!!!SMS-altvar:
!!!NIFC-rismid: 1001147348
!!!URL-scan: http://repozytorium.nifc.pl/skany/pl-kk-nut--i-274
!!!ONB-nifc: UWAGA: części: 1. Rorate caeli, 2. Benedixisti, 3. Gloria patri, 4. Tollite portas (Quis ascendet należy do części), 5. Alleluia Ave Maria
**kern	**text
*I"Baſſo.	*
*I'B	*
*clefF4	*
*k[b-]	*
*F:	*
*M2/1	*
*met(C|)	*
*>[A,B,A]	*
=1-	=1-
*all\right	*
*>A	*
0r	.
=2-	=2-
1F	Al-
2C/	-le-
2C/	-lu-
=3-	=3-
2FF/	-ia
2r	.
*2\right	*
2F\	al-
1F\	-le-
=4-	=4-
.	.
2F\	-lu-
4E\	.
4D\	.
!LO:LB:g=original	!
2C/	-ia
=5-	=5-
*	*ij
2C/	al-
2.F\	-le-
4F\	-lu-
2C/	-ia
=6-	=6-
2C/	al-
2.G\	-le-
4F\	lu-
2E\	-ia
=7-	=7-
2F\	al-
1G	-le-
2.F\	-lu-
=8-	=8-
.	.
4E\	.
2C/	-ia
*	*Xij
2.F\	al-
4E\	-le-
=9-	=9-
4D\	.
4C/	.
2D/	.
2D/	-lu-
1.C/	-ia
=10-	=10-
.	.
*	*ij
2D/	al-
2BB-/	-le-
=11-	=11-
2C/	-lu-
1FF;;	-ia
*	*Xij
2ryy	.
!LO:LB:g=original	!
=12||	=12||
*>B	*
*M2/1	*
*met(C|)	*
1G	A-
2G\	-ve
1G\	Ma-
=13-	=13-
.	.
4F\	.
4E\	.
1D	-ri-
=14-	=14-
2C/	-a
2.c\	a-
4B-\	.
1A\	.
=15-	=15-
.	.
2G\	.
2A\	-ve
2c\	Ma-
=16-	=16-
1B-	-ri-
2A\	.
2F\	.
=17-	=17-
1C	-a
2r	.
2C/	gra-
=18-	=18-
1D	.
2.E\	.
4E\	-ti-
!LO:LB:g=original	!
=19-	=19-
2AA/	-a
2.A\	ple-
4G\	.
1F\	.
=20-	=20-
.	.
2E/	.
1F	-na
=21-	=21-
2r	.
2D/	gra-
2.G\	-ti-
4G\	-a
=22-	=22-
1F	ple-
2B-\	.
2G\	.
=23-	=23-
1F	-na
2r	.
2.A\	ple-
=24-	=24-
.	.
4G\	.
4F\	.
4E\	.
2F\	.
2F\	-na
=25-	=25-
!LO:TX:t=P:problem:kreska pseudotaktowa	!
1C	.
!LO:TX:t=P:problem:kreska pseudotaktowa	!
0r	.
=26-	=26-
.	.
1F	Do-
=27-	=27-
2.D/	.
4D/	-mi-
1F	-nus
!LO:LB:g=original	!
=28-	=28-
2.G\	te-
4F\	.
4D\	.
4E\	.
1F\	.
=29-	=29-
.	.
4E\	.
4D\	.
1C	-cum
=30-	=30-
1C	be-
2BB-/	-ne-
2.B-\	.
=31-	=31-
.	.
4A\	.
2G\	.
2F\	di-
2E\	-cta
=32-	=32-
1D	.
1C	tu
=33-	=33-
2r	.
2c\	in
1B-	mu-
=34-	=34-
2c\	-li-
2F\	-e-
2.G\	-ri
!LO:LB:g=original	!
4G\	bus
=35-	=35-
2C/	.
2F\	et
1D	be-
=36-	=36-
1E	-ne-
1F	-di-
=37-	=37-
1G	.
1C	-ctus
=38-	=38-
2r	.
2D/	be-
1G	-ne-
=39-	=39-
1F	-dic-
1B-	-tus
=40-	=40-
2G\	fru-
2F\	-ctus
1G	ven-
=41-	=41-
1A	.
1D	-tris
=42-	=42-
2r	.
2G\	ven-
2.F\	.
4E\	.
!LO:LB:g=original	!
=43-	=43-
2D/	-tris
2D/	tu-
1C	-i
=44-	=44-
2C/	fru-
2F\	-ct(us)
2E\	ven-
2C/	-tris
=45-	=45-
1G	tu-
1C	-i
=46-	=46-
2r	.
2D/	fru-
1C	-ct(us)
=47-	=47-
2FF/	ven-
2BB-/	.
2AA/	-tris
*	*ij
2.D/	ven-
=48-	=48-
.	.
4C/	.
4BB-/	.
4AA/	.
2BB-/	-tris
*	*Xij
2BB-/	tu-
=49-	=49-
!LO:TX:b:i:t=Alleluia Da Capo.	!
0FFl;;	-i.
==	==
*-	*-
!!!RDF**kern: l = terminal long
!!!ENC: Marta Lawrence
!!!END: 2021-03-28
!!!ENC: Andrzej Borzym
!!!END: 2021-03-10
